images/3234662.svg

<?xml version="1.0" encoding="UTF-8"?>
<svg xmlns="http://www.w3.org/2000/svg" xmlns:xlink="http://www.w3.org/1999/xlink" width="300pt" height="300pt" viewBox="0 0 300 300" version="1.1">
<defs>
<g>
<symbol overflow="visible" id="glyph0-0">
<path style="stroke:none;" d="M 0.59375 2.125 L 0.59375 -8.46875 L 6.59375 -8.46875 L 6.59375 2.125 Z M 1.265625 1.453125 L 5.9375 1.453125 L 5.9375 -7.78125 L 1.265625 -7.78125 Z M 1.265625 1.453125 "/>
</symbol>
<symbol overflow="visible" id="glyph0-1">
<path style="stroke:none;" d="M 1.171875 -8.75 L 2.765625 -8.75 L 6.65625 -1.4375 L 6.65625 -8.75 L 7.796875 -8.75 L 7.796875 0 L 6.203125 0 L 2.328125 -7.3125 L 2.328125 0 L 1.171875 0 Z M 1.171875 -8.75 "/>
</symbol>
<symbol overflow="visible" id="glyph0-2">
<path style="stroke:none;" d="M 4.734375 -7.953125 C 3.867188 -7.953125 3.179688 -7.628906 2.671875 -6.984375 C 2.171875 -6.347656 1.921875 -5.472656 1.921875 -4.359375 C 1.921875 -3.265625 2.171875 -2.394531 2.671875 -1.75 C 3.179688 -1.113281 3.867188 -0.796875 4.734375 -0.796875 C 5.585938 -0.796875 6.265625 -1.113281 6.765625 -1.75 C 7.273438 -2.394531 7.53125 -3.265625 7.53125 -4.359375 C 7.53125 -5.472656 7.273438 -6.347656 6.765625 -6.984375 C 6.265625 -7.628906 5.585938 -7.953125 4.734375 -7.953125 Z M 4.734375 -8.90625 C 5.953125 -8.90625 6.925781 -8.492188 7.65625 -7.671875 C 8.394531 -6.847656 8.765625 -5.742188 8.765625 -4.359375 C 8.765625 -2.984375 8.394531 -1.882812 7.65625 -1.0625 C 6.925781 -0.238281 5.953125 0.171875 4.734375 0.171875 C 3.503906 0.171875 2.519531 -0.238281 1.78125 -1.0625 C 1.039062 -1.882812 0.671875 -2.984375 0.671875 -4.359375 C 0.671875 -5.742188 1.039062 -6.847656 1.78125 -7.671875 C 2.519531 -8.492188 3.503906 -8.90625 4.734375 -8.90625 Z M 4.734375 -8.90625 "/>
</symbol>
<symbol overflow="visible" id="glyph0-3">
<path style="stroke:none;" d="M 6.421875 -8.46875 L 6.421875 -7.3125 C 5.972656 -7.519531 5.546875 -7.675781 5.140625 -7.78125 C 4.742188 -7.894531 4.363281 -7.953125 4 -7.953125 C 3.351562 -7.953125 2.851562 -7.828125 2.5 -7.578125 C 2.15625 -7.328125 1.984375 -6.96875 1.984375 -6.5 C 1.984375 -6.113281 2.097656 -5.820312 2.328125 -5.625 C 2.554688 -5.425781 3 -5.269531 3.65625 -5.15625 L 4.359375 -5 C 5.242188 -4.832031 5.894531 -4.535156 6.3125 -4.109375 C 6.738281 -3.691406 6.953125 -3.128906 6.953125 -2.421875 C 6.953125 -1.566406 6.664062 -0.921875 6.09375 -0.484375 C 5.53125 -0.046875 4.695312 0.171875 3.59375 0.171875 C 3.1875 0.171875 2.75 0.125 2.28125 0.03125 C 1.8125 -0.0625 1.328125 -0.203125 0.828125 -0.390625 L 0.828125 -1.609375 C 1.304688 -1.335938 1.773438 -1.132812 2.234375 -1 C 2.703125 -0.863281 3.15625 -0.796875 3.59375 -0.796875 C 4.269531 -0.796875 4.789062 -0.925781 5.15625 -1.1875 C 5.53125 -1.457031 5.71875 -1.835938 5.71875 -2.328125 C 5.71875 -2.753906 5.582031 -3.085938 5.3125 -3.328125 C 5.050781 -3.578125 4.617188 -3.757812 4.015625 -3.875 L 3.296875 -4.015625 C 2.410156 -4.191406 1.769531 -4.46875 1.375 -4.84375 C 0.988281 -5.21875 0.796875 -5.738281 0.796875 -6.40625 C 0.796875 -7.1875 1.066406 -7.796875 1.609375 -8.234375 C 2.148438 -8.679688 2.898438 -8.90625 3.859375 -8.90625 C 4.273438 -8.90625 4.691406 -8.867188 5.109375 -8.796875 C 5.535156 -8.722656 5.972656 -8.613281 6.421875 -8.46875 Z M 6.421875 -8.46875 "/>
</symbol>
</g>
</defs>
<g id="surface55701">
<rect x="0" y="0" width="300" height="300" style="fill:rgb(100%,100%,100%);fill-opacity:1;stroke:none;"/>
<path style="fill:none;stroke-width:1.2;stroke-linecap:butt;stroke-linejoin:miter;stroke:rgb(0%,0%,0%);stroke-opacity:1;stroke-miterlimit:10;" d="M 35.25 84.25 L 42.882812 97.40625 "/>
<path style="fill:none;stroke-width:1.2;stroke-linecap:butt;stroke-linejoin:miter;stroke:rgb(0%,0%,100%);stroke-opacity:1;stroke-miterlimit:10;" d="M 42.882812 97.40625 L 50.519531 110.5625 "/>
<path style="fill:none;stroke-width:1.2;stroke-linecap:butt;stroke-linejoin:miter;stroke:rgb(0%,0%,100%);stroke-opacity:1;stroke-miterlimit:10;" d="M 50.519531 110.5625 L 42.941406 123.753906 "/>
<path style="fill:none;stroke-width:1.2;stroke-linecap:butt;stroke-linejoin:miter;stroke:rgb(0%,0%,0%);stroke-opacity:1;stroke-miterlimit:10;" d="M 42.941406 123.753906 L 35.367188 136.945312 "/>
<path style="fill:none;stroke-width:1.2;stroke-linecap:butt;stroke-linejoin:miter;stroke:rgb(0%,0%,100%);stroke-opacity:1;stroke-miterlimit:10;" d="M 50.519531 110.5625 L 65.730469 110.53125 "/>
<path style="fill:none;stroke-width:1.2;stroke-linecap:butt;stroke-linejoin:miter;stroke:rgb(0%,0%,0%);stroke-opacity:1;stroke-miterlimit:10;" d="M 65.730469 110.53125 L 80.941406 110.496094 "/>
<path style=" stroke:none;fill-rule:nonzero;fill:rgb(100%,100%,100%);fill-opacity:1;" d="M 46.519531 103.5625 L 55.519531 103.5625 L 55.519531 117.5625 L 46.519531 117.5625 Z M 46.519531 103.5625 "/>
<g style="fill:rgb(0%,0%,100%);fill-opacity:1;">
  <use xlink:href="#glyph0-1" x="46.519531" y="114.701172"/>
</g>
<path style="fill:none;stroke-width:1.2;stroke-linecap:butt;stroke-linejoin:miter;stroke:rgb(0%,0%,0%);stroke-opacity:1;stroke-miterlimit:10;" d="M 80.941406 110.496094 L 88.519531 97.308594 "/>
<path style="fill:none;stroke-width:1.2;stroke-linecap:butt;stroke-linejoin:miter;stroke:rgb(0%,0%,100%);stroke-opacity:1;stroke-miterlimit:10;" d="M 88.519531 97.308594 L 96.09375 84.117188 "/>
<path style="fill:none;stroke-width:1.2;stroke-linecap:butt;stroke-linejoin:miter;stroke:rgb(0%,0%,0%);stroke-opacity:1;stroke-miterlimit:10;" d="M 88.664062 111.425781 L 94.726562 100.871094 "/>
<path style="fill:none;stroke-width:1.2;stroke-linecap:butt;stroke-linejoin:miter;stroke:rgb(0%,0%,100%);stroke-opacity:1;stroke-miterlimit:10;" d="M 94.726562 100.871094 L 100.785156 90.320312 "/>
<path style="fill:none;stroke-width:1.2;stroke-linecap:butt;stroke-linejoin:miter;stroke:rgb(0%,0%,100%);stroke-opacity:1;stroke-miterlimit:10;" d="M 96.210938 136.808594 L 88.578125 123.652344 "/>
<path style="fill:none;stroke-width:1.2;stroke-linecap:butt;stroke-linejoin:miter;stroke:rgb(0%,0%,0%);stroke-opacity:1;stroke-miterlimit:10;" d="M 88.578125 123.652344 L 80.941406 110.496094 "/>
<path style="fill:none;stroke-width:1.2;stroke-linecap:butt;stroke-linejoin:miter;stroke:rgb(0%,0%,100%);stroke-opacity:1;stroke-miterlimit:10;" d="M 96.09375 84.117188 L 111.304688 84.082031 "/>
<path style="fill:none;stroke-width:1.2;stroke-linecap:butt;stroke-linejoin:miter;stroke:rgb(0%,0%,0%);stroke-opacity:1;stroke-miterlimit:10;" d="M 111.304688 84.082031 L 126.515625 84.050781 "/>
<path style=" stroke:none;fill-rule:nonzero;fill:rgb(100%,100%,100%);fill-opacity:1;" d="M 92.09375 77.117188 L 101.09375 77.117188 L 101.09375 91.117188 L 92.09375 91.117188 Z M 92.09375 77.117188 "/>
<g style="fill:rgb(0%,0%,100%);fill-opacity:1;">
  <use xlink:href="#glyph0-1" x="92.09375" y="88.255859"/>
</g>
<path style="fill:none;stroke-width:1.2;stroke-linecap:butt;stroke-linejoin:miter;stroke:rgb(0%,0%,0%);stroke-opacity:1;stroke-miterlimit:10;" d="M 126.515625 84.050781 L 141.785156 110.363281 "/>
<path style="fill:none;stroke-width:1.2;stroke-linecap:butt;stroke-linejoin:miter;stroke:rgb(0%,0%,0%);stroke-opacity:1;stroke-miterlimit:10;" d="M 121.851562 90.273438 L 134.070312 111.324219 "/>
<path style="fill:none;stroke-width:1.2;stroke-linecap:butt;stroke-linejoin:miter;stroke:rgb(0%,0%,0%);stroke-opacity:1;stroke-miterlimit:10;" d="M 141.785156 110.363281 L 126.632812 136.742188 "/>
<path style="fill:none;stroke-width:1.2;stroke-linecap:butt;stroke-linejoin:miter;stroke:rgb(0%,0%,100%);stroke-opacity:1;stroke-miterlimit:10;" d="M 172.210938 110.296875 L 156.996094 110.328125 "/>
<path style="fill:none;stroke-width:1.2;stroke-linecap:butt;stroke-linejoin:miter;stroke:rgb(0%,0%,0%);stroke-opacity:1;stroke-miterlimit:10;" d="M 156.996094 110.328125 L 141.785156 110.363281 "/>
<path style="fill:none;stroke-width:1.2;stroke-linecap:butt;stroke-linejoin:miter;stroke:rgb(0%,0%,0%);stroke-opacity:1;stroke-miterlimit:10;" d="M 126.632812 136.742188 L 111.421875 136.777344 "/>
<path style="fill:none;stroke-width:1.2;stroke-linecap:butt;stroke-linejoin:miter;stroke:rgb(0%,0%,100%);stroke-opacity:1;stroke-miterlimit:10;" d="M 111.421875 136.777344 L 96.210938 136.808594 "/>
<path style="fill:none;stroke-width:1.2;stroke-linecap:butt;stroke-linejoin:miter;stroke:rgb(0%,0%,0%);stroke-opacity:1;stroke-miterlimit:10;" d="M 123.574219 129.589844 L 111.40625 129.617188 "/>
<path style="fill:none;stroke-width:1.2;stroke-linecap:butt;stroke-linejoin:miter;stroke:rgb(0%,0%,100%);stroke-opacity:1;stroke-miterlimit:10;" d="M 111.40625 129.617188 L 99.238281 129.644531 "/>
<path style="fill:none;stroke-width:1.2;stroke-linecap:butt;stroke-linejoin:miter;stroke:rgb(0%,0%,0%);stroke-opacity:1;stroke-miterlimit:10;" d="M 126.632812 136.742188 L 134.269531 149.898438 "/>
<path style="fill:none;stroke-width:1.2;stroke-linecap:butt;stroke-linejoin:miter;stroke:rgb(0%,0%,100%);stroke-opacity:1;stroke-miterlimit:10;" d="M 134.269531 149.898438 L 141.902344 163.054688 "/>
<path style=" stroke:none;fill-rule:nonzero;fill:rgb(100%,100%,100%);fill-opacity:1;" d="M 92.210938 129.808594 L 101.210938 129.808594 L 101.210938 143.808594 L 92.210938 143.808594 Z M 92.210938 129.808594 "/>
<g style="fill:rgb(0%,0%,100%);fill-opacity:1;">
  <use xlink:href="#glyph0-1" x="92.210938" y="140.947266"/>
</g>
<path style="fill:none;stroke-width:1.2;stroke-linecap:butt;stroke-linejoin:miter;stroke:rgb(0%,0%,100%);stroke-opacity:1;stroke-miterlimit:10;" d="M 141.902344 163.054688 L 157.113281 163.023438 "/>
<path style="fill:none;stroke-width:1.2;stroke-linecap:butt;stroke-linejoin:miter;stroke:rgb(0%,0%,0%);stroke-opacity:1;stroke-miterlimit:10;" d="M 157.113281 163.023438 L 172.324219 162.988281 "/>
<path style="fill:none;stroke-width:1.2;stroke-linecap:butt;stroke-linejoin:miter;stroke:rgb(0%,0%,100%);stroke-opacity:1;stroke-miterlimit:10;" d="M 141.902344 163.054688 L 134.328125 176.246094 "/>
<path style="fill:none;stroke-width:1.2;stroke-linecap:butt;stroke-linejoin:miter;stroke:rgb(0%,0%,0%);stroke-opacity:1;stroke-miterlimit:10;" d="M 134.328125 176.246094 L 126.75 189.4375 "/>
<path style=" stroke:none;fill-rule:nonzero;fill:rgb(100%,100%,100%);fill-opacity:1;" d="M 137.902344 156.054688 L 146.902344 156.054688 L 146.902344 170.054688 L 137.902344 170.054688 Z M 137.902344 156.054688 "/>
<g style="fill:rgb(0%,0%,100%);fill-opacity:1;">
  <use xlink:href="#glyph0-1" x="137.902344" y="167.193359"/>
</g>
<path style="fill:none;stroke-width:1.2;stroke-linecap:butt;stroke-linejoin:miter;stroke:rgb(0%,0%,0%);stroke-opacity:1;stroke-miterlimit:10;" d="M 169.230469 164.785156 L 176.863281 177.941406 "/>
<path style="fill:none;stroke-width:1.2;stroke-linecap:butt;stroke-linejoin:miter;stroke:rgb(100%,0%,0%);stroke-opacity:1;stroke-miterlimit:10;" d="M 176.863281 177.941406 L 184.5 191.097656 "/>
<path style="fill:none;stroke-width:1.2;stroke-linecap:butt;stroke-linejoin:miter;stroke:rgb(0%,0%,0%);stroke-opacity:1;stroke-miterlimit:10;" d="M 175.421875 161.191406 L 183.054688 174.347656 "/>
<path style="fill:none;stroke-width:1.2;stroke-linecap:butt;stroke-linejoin:miter;stroke:rgb(100%,0%,0%);stroke-opacity:1;stroke-miterlimit:10;" d="M 183.054688 174.347656 L 190.691406 187.503906 "/>
<path style="fill:none;stroke-width:1.2;stroke-linecap:butt;stroke-linejoin:miter;stroke:rgb(0%,0%,0%);stroke-opacity:1;stroke-miterlimit:10;" d="M 172.324219 162.988281 L 187.480469 136.609375 "/>
<path style=" stroke:none;fill-rule:nonzero;fill:rgb(100%,100%,100%);fill-opacity:1;" d="M 182.59375 182.300781 L 192.59375 182.300781 L 192.59375 196.300781 L 182.59375 196.300781 Z M 182.59375 182.300781 "/>
<g style="fill:rgb(100%,0%,0%);fill-opacity:1;">
  <use xlink:href="#glyph0-2" x="182.59375" y="193.439453"/>
</g>
<path style="fill:none;stroke-width:1.2;stroke-linecap:butt;stroke-linejoin:miter;stroke:rgb(0%,0%,0%);stroke-opacity:1;stroke-miterlimit:10;" d="M 187.480469 136.609375 L 179.84375 123.453125 "/>
<path style="fill:none;stroke-width:1.2;stroke-linecap:butt;stroke-linejoin:miter;stroke:rgb(0%,0%,100%);stroke-opacity:1;stroke-miterlimit:10;" d="M 179.84375 123.453125 L 172.210938 110.296875 "/>
<path style="fill:none;stroke-width:1.2;stroke-linecap:butt;stroke-linejoin:miter;stroke:rgb(0%,0%,0%);stroke-opacity:1;stroke-miterlimit:10;" d="M 179.761719 137.570312 L 173.652344 127.042969 "/>
<path style="fill:none;stroke-width:1.2;stroke-linecap:butt;stroke-linejoin:miter;stroke:rgb(0%,0%,100%);stroke-opacity:1;stroke-miterlimit:10;" d="M 173.652344 127.042969 L 167.542969 116.519531 "/>
<path style="fill:none;stroke-width:1.2;stroke-linecap:butt;stroke-linejoin:miter;stroke:rgb(0%,0%,0%);stroke-opacity:1;stroke-miterlimit:10;" d="M 187.480469 136.609375 L 217.902344 136.542969 "/>
<path style=" stroke:none;fill-rule:nonzero;fill:rgb(100%,100%,100%);fill-opacity:1;" d="M 168.210938 103.296875 L 177.210938 103.296875 L 177.210938 117.296875 L 168.210938 117.296875 Z M 168.210938 103.296875 "/>
<g style="fill:rgb(0%,0%,100%);fill-opacity:1;">
  <use xlink:href="#glyph0-1" x="168.210938" y="114.435547"/>
</g>
<path style="fill:none;stroke-width:1.2;stroke-linecap:butt;stroke-linejoin:miter;stroke:rgb(0%,0%,0%);stroke-opacity:1;stroke-miterlimit:10;" d="M 217.902344 136.542969 L 235.730469 111.890625 "/>
<path style="fill:none;stroke-width:1.2;stroke-linecap:butt;stroke-linejoin:miter;stroke:rgb(0%,0%,0%);stroke-opacity:1;stroke-miterlimit:10;" d="M 225.484375 138.269531 L 239.746094 118.550781 "/>
<path style="fill:none;stroke-width:1.2;stroke-linecap:butt;stroke-linejoin:miter;stroke:rgb(80%,80%,0%);stroke-opacity:1;stroke-miterlimit:10;" d="M 235.835938 161.113281 L 226.871094 148.828125 "/>
<path style="fill:none;stroke-width:1.2;stroke-linecap:butt;stroke-linejoin:miter;stroke:rgb(0%,0%,0%);stroke-opacity:1;stroke-miterlimit:10;" d="M 226.871094 148.828125 L 217.902344 136.542969 "/>
<path style="fill:none;stroke-width:1.2;stroke-linecap:butt;stroke-linejoin:miter;stroke:rgb(0%,0%,0%);stroke-opacity:1;stroke-miterlimit:10;" d="M 235.730469 111.890625 L 264.683594 121.226562 "/>
<path style="fill:none;stroke-width:1.2;stroke-linecap:butt;stroke-linejoin:miter;stroke:rgb(0%,0%,0%);stroke-opacity:1;stroke-miterlimit:10;" d="M 264.683594 121.226562 L 264.75 151.648438 "/>
<path style="fill:none;stroke-width:1.2;stroke-linecap:butt;stroke-linejoin:miter;stroke:rgb(0%,0%,0%);stroke-opacity:1;stroke-miterlimit:10;" d="M 257.53125 124.285156 L 257.585938 148.621094 "/>
<path style="fill:none;stroke-width:1.2;stroke-linecap:butt;stroke-linejoin:miter;stroke:rgb(0%,0%,0%);stroke-opacity:1;stroke-miterlimit:10;" d="M 264.75 151.648438 L 250.292969 156.382812 "/>
<path style="fill:none;stroke-width:1.2;stroke-linecap:butt;stroke-linejoin:miter;stroke:rgb(80%,80%,0%);stroke-opacity:1;stroke-miterlimit:10;" d="M 250.292969 156.382812 L 235.835938 161.113281 "/>
<path style=" stroke:none;fill-rule:nonzero;fill:rgb(100%,100%,100%);fill-opacity:1;" d="M 231.835938 154.113281 L 239.835938 154.113281 L 239.835938 168.113281 L 231.835938 168.113281 Z M 231.835938 154.113281 "/>
<g style="fill:rgb(80%,80%,0%);fill-opacity:1;">
  <use xlink:href="#glyph0-3" x="231.835938" y="165.251953"/>
</g>
<path style="fill:none;stroke-width:1.2;stroke-linecap:butt;stroke-linejoin:miter;stroke:rgb(0%,0%,0%);stroke-opacity:1;stroke-miterlimit:10;" d="M 126.75 189.4375 L 96.328125 189.503906 "/>
<path style="fill:none;stroke-width:1.2;stroke-linecap:butt;stroke-linejoin:miter;stroke:rgb(0%,0%,0%);stroke-opacity:1;stroke-miterlimit:10;" d="M 96.328125 189.503906 L 88.75 202.691406 "/>
<path style="fill:none;stroke-width:1.2;stroke-linecap:butt;stroke-linejoin:miter;stroke:rgb(100%,0%,0%);stroke-opacity:1;stroke-miterlimit:10;" d="M 88.75 202.691406 L 81.175781 215.882812 "/>
<path style="fill:none;stroke-width:1.2;stroke-linecap:butt;stroke-linejoin:miter;stroke:rgb(100%,0%,0%);stroke-opacity:1;stroke-miterlimit:10;" d="M 81.175781 215.882812 L 65.964844 215.917969 "/>
<path style="fill:none;stroke-width:1.2;stroke-linecap:butt;stroke-linejoin:miter;stroke:rgb(0%,0%,0%);stroke-opacity:1;stroke-miterlimit:10;" d="M 65.964844 215.917969 L 50.75 215.949219 "/>
<path style=" stroke:none;fill-rule:nonzero;fill:rgb(100%,100%,100%);fill-opacity:1;" d="M 76.175781 208.882812 L 86.175781 208.882812 L 86.175781 222.882812 L 76.175781 222.882812 Z M 76.175781 208.882812 "/>
<g style="fill:rgb(100%,0%,0%);fill-opacity:1;">
  <use xlink:href="#glyph0-2" x="76.175781" y="220.021484"/>
</g>
</g>
</svg>

<svg xmlns="http://www.w3.org/2000/svg" xmlns:xlink="http://www.w3.org/1999/xlink" width="300pt" height="300pt" viewBox="0 0 300 300"><defs><symbol overflow="visible"><path d="M.594 2.125V-8.47h6V2.126zm.672-.672h4.671V-7.78h-4.67zm0 0"/></symbol><symbol overflow="visible" id="a"><path d="M1.172-8.75h1.594l3.89 7.313V-8.75h1.14V0H6.204L2.328-7.313V0H1.172zm0 0"/></symbol><symbol overflow="visible" id="b"><path d="M4.734-7.953c-.867 0-1.554.324-2.062.97-.5.635-.75 1.51-.75 2.624 0 1.094.25 1.965.75 2.61.508.637 1.195.953 2.062.953.852 0 1.532-.316 2.032-.953.507-.645.765-1.516.765-2.61 0-1.113-.257-1.988-.764-2.624-.5-.645-1.18-.97-2.032-.97zm0-.953c1.22 0 2.192.414 2.922 1.234.74.824 1.11 1.93 1.11 3.313 0 1.376-.37 2.477-1.11 3.298C6.926-.24 5.953.17 4.734.17c-1.23 0-2.214-.41-2.953-1.234C1.04-1.882.673-2.984.673-4.36c0-1.382.367-2.488 1.11-3.312.738-.82 1.722-1.234 2.952-1.234zm0 0"/></symbol><symbol overflow="visible" id="c"><path d="M6.422-8.47v1.158c-.45-.208-.875-.364-1.28-.47-.4-.113-.78-.17-1.142-.17-.648 0-1.148.124-1.5.374-.344.25-.516.61-.516 1.078 0 .387.114.68.344.875.227.2.672.355 1.328.47L4.36-5c.882.168 1.535.465 1.952.89.426.42.64.98.64 1.688 0 .856-.288 1.5-.858 1.938-.563.437-1.4.656-2.5.656-.406 0-.844-.047-1.313-.14C1.814-.064 1.33-.204.83-.392v-1.22c.477.274.945.477 1.406.61.47.137.922.203 1.36.203.676 0 1.195-.13 1.562-.39.375-.27.563-.65.563-1.14 0-.427-.138-.76-.407-1-.262-.25-.696-.43-1.297-.548l-.72-.14c-.886-.176-1.526-.454-1.92-.83-.388-.374-.58-.893-.58-1.56 0-.782.27-1.392.813-1.83.538-.445 1.288-.67 2.25-.67.413 0 .83.038 1.25.108.425.074.863.184 1.312.328zm0 0"/></symbol></defs><g><path fill="#fff" d="M0 0h300v300H0z"/><path d="M35.25 84.25l7.633 13.156" stroke-width="1.2" stroke="#000" stroke-miterlimit="10" fill="none"/><path d="M42.883 97.406l7.637 13.156M50.52 110.563l-7.58 13.19" stroke-width="1.2" stroke="#00f" stroke-miterlimit="10" fill="none"/><path d="M42.94 123.754l-7.573 13.19" stroke-width="1.2" stroke="#000" stroke-miterlimit="10" fill="none"/><path d="M50.52 110.563l15.21-.032" stroke-width="1.2" stroke="#00f" stroke-miterlimit="10" fill="none"/><path d="M65.73 110.53l15.21-.034" stroke-width="1.2" stroke="#000" stroke-miterlimit="10" fill="none"/><path d="M46.52 103.563h9v14h-9zm0 0" fill="#fff"/><use xlink:href="#a" x="46.52" y="114.701" fill="#00f"/><path d="M80.94 110.496l7.58-13.187" stroke-width="1.2" stroke="#000" stroke-miterlimit="10" fill="none"/><path d="M88.52 97.31l7.574-13.193" stroke-width="1.2" stroke="#00f" stroke-miterlimit="10" fill="none"/><path d="M88.664 111.426l6.063-10.555" stroke-width="1.2" stroke="#000" stroke-miterlimit="10" fill="none"/><path d="M94.727 100.87l6.058-10.55M96.21 136.81L88.58 123.65" stroke-width="1.2" stroke="#00f" stroke-miterlimit="10" fill="none"/><path d="M88.578 123.652l-7.637-13.156" stroke-width="1.2" stroke="#000" stroke-miterlimit="10" fill="none"/><path d="M96.094 84.117l15.21-.035" stroke-width="1.2" stroke="#00f" stroke-miterlimit="10" fill="none"/><path d="M111.305 84.082l15.21-.03" stroke-width="1.2" stroke="#000" stroke-miterlimit="10" fill="none"/><path d="M92.094 77.117h9v14h-9zm0 0" fill="#fff"/><use xlink:href="#a" x="92.094" y="88.256" fill="#00f"/><path d="M126.516 84.05l15.27 26.313M121.852 90.273l12.218 21.05M141.785 110.363l-15.152 26.38" stroke-width="1.2" stroke="#000" stroke-miterlimit="10" fill="none"/><path d="M172.21 110.297l-15.214.03" stroke-width="1.2" stroke="#00f" stroke-miterlimit="10" fill="none"/><path d="M156.996 110.328l-15.21.035M126.633 136.742l-15.21.035" stroke-width="1.2" stroke="#000" stroke-miterlimit="10" fill="none"/><path d="M111.422 136.777l-15.21.032" stroke-width="1.2" stroke="#00f" stroke-miterlimit="10" fill="none"/><path d="M123.574 129.59l-12.168.027" stroke-width="1.2" stroke="#000" stroke-miterlimit="10" fill="none"/><path d="M111.406 129.617l-12.168.028" stroke-width="1.2" stroke="#00f" stroke-miterlimit="10" fill="none"/><path d="M126.633 136.742l7.637 13.156" stroke-width="1.2" stroke="#000" stroke-miterlimit="10" fill="none"/><path d="M134.27 149.898l7.632 13.157" stroke-width="1.2" stroke="#00f" stroke-miterlimit="10" fill="none"/><path d="M92.21 129.81h9v14h-9zm0 0" fill="#fff"/><use xlink:href="#a" x="92.211" y="140.947" fill="#00f"/><path d="M141.902 163.055l15.21-.032" stroke-width="1.2" stroke="#00f" stroke-miterlimit="10" fill="none"/><path d="M157.113 163.023l15.21-.035" stroke-width="1.2" stroke="#000" stroke-miterlimit="10" fill="none"/><path d="M141.902 163.055l-7.574 13.19" stroke-width="1.2" stroke="#00f" stroke-miterlimit="10" fill="none"/><path d="M134.328 176.246l-7.578 13.19" stroke-width="1.2" stroke="#000" stroke-miterlimit="10" fill="none"/><path d="M137.902 156.055h9v14h-9zm0 0" fill="#fff"/><use xlink:href="#a" x="137.902" y="167.193" fill="#00f"/><path d="M169.23 164.785l7.633 13.156" stroke-width="1.2" stroke="#000" stroke-miterlimit="10" fill="none"/><path d="M176.863 177.94L184.5 191.1" stroke-width="1.2" stroke="#f00" stroke-miterlimit="10" fill="none"/><path d="M175.422 161.19l7.633 13.158" stroke-width="1.2" stroke="#000" stroke-miterlimit="10" fill="none"/><path d="M183.055 174.348l7.636 13.156" stroke-width="1.2" stroke="#f00" stroke-miterlimit="10" fill="none"/><path d="M172.324 162.988l15.156-26.38" stroke-width="1.2" stroke="#000" stroke-miterlimit="10" fill="none"/><path d="M182.594 182.3h10v14h-10zm0 0" fill="#fff"/><use xlink:href="#b" x="182.594" y="193.439" fill="#f00"/><path d="M187.48 136.61l-7.636-13.157" stroke-width="1.2" stroke="#000" stroke-miterlimit="10" fill="none"/><path d="M179.844 123.453l-7.633-13.156" stroke-width="1.2" stroke="#00f" stroke-miterlimit="10" fill="none"/><path d="M179.762 137.57l-6.11-10.527" stroke-width="1.2" stroke="#000" stroke-miterlimit="10" fill="none"/><path d="M173.652 127.043l-6.11-10.523" stroke-width="1.2" stroke="#00f" stroke-miterlimit="10" fill="none"/><path d="M187.48 136.61l30.422-.067" stroke-width="1.2" stroke="#000" stroke-miterlimit="10" fill="none"/><path d="M168.21 103.297h9v14h-9zm0 0" fill="#fff"/><use xlink:href="#a" x="168.211" y="114.436" fill="#00f"/><path d="M217.902 136.543l17.828-24.652M225.484 138.27l14.262-19.72" stroke-width="1.2" stroke="#000" stroke-miterlimit="10" fill="none"/><path d="M235.836 161.113l-8.965-12.285" stroke-width="1.2" stroke="#cc0" stroke-miterlimit="10" fill="none"/><path d="M226.87 148.828l-8.968-12.285M235.73 111.89l28.954 9.337M264.684 121.227l.066 30.42M257.53 124.285l.056 24.336M264.75 151.648l-14.457 4.735" stroke-width="1.2" stroke="#000" stroke-miterlimit="10" fill="none"/><path d="M250.293 156.383l-14.457 4.73" stroke-width="1.2" stroke="#cc0" stroke-miterlimit="10" fill="none"/><path d="M231.836 154.113h8v14h-8zm0 0" fill="#fff"/><use xlink:href="#c" x="231.836" y="165.252" fill="#cc0"/><path d="M126.75 189.438l-30.422.066M96.328 189.504L88.75 202.69" stroke-width="1.2" stroke="#000" stroke-miterlimit="10" fill="none"/><path d="M88.75 202.69l-7.574 13.193M81.176 215.883l-15.21.035" stroke-width="1.2" stroke="#f00" stroke-miterlimit="10" fill="none"/><path d="M65.965 215.918l-15.215.03" stroke-width="1.2" stroke="#000" stroke-miterlimit="10" fill="none"/><path d="M76.176 208.883h10v14h-10zm0 0" fill="#fff"/><use xlink:href="#b" x="76.176" y="220.021" fill="#f00"/></g></svg>
